X:1
T: The Flower of the Quern
C:
R:Strathspey
Q: 128
K:A
M:4/4
L:1/16
|:E4|A4 A4 G4 F2E2|d4 d4 c4 e4|e4 c2B2 A4 B2c2|B12 E4|
A4 A4 G4 F2E2|d4 d4 c4 e4|e2d2 F2B2 A4 G4|A12 A4|
d4 d3d d4 f4|e6 c2 e4 a2f2|e4 c2B2 A4 B2c2|B12 E4|
A4 A4 G4 F2E2|d4 d4 c4 e3e|e2d2 F2B2 A4 c3B|A12:|
